X:1
T:Ô Croix dressée sur le monde
T:Ô Croix dressée sur le monde 
T:J.Servel
T:Traditionnel breton harm. Ph.Robert 
%%score [ 1 2 3 ]
L:1/8
Q:3/4=50
M:6/4
K:A
V:1 treble nm="Soprano" snm="S."
V:2 treble nm="Alto" snm="A."
V:3 bass nm="Hommes" snm="H."
V:1
"^Choeur puis tous." C2 | F4 F2 A2 F2 A2 | (c4 B2) A4 z2 | B2 c2 B2 A4 G2 |[M:5/4] (F6 F2) z2 :| %5
w: 1.O|Croix dres- sée sur le|mon _ de,|Ô Croix de Jé- sus|Christ. _|
w: 2.O|Croix su- bli- me fo-|li _ e,|O Croix de Jé- sus|Christ. _|
w: 3.O|Croix sa- ges- se su-|prê _ me,|O Croix de Jé- sus|Christ. _|
w: 4.O|Croix vic- toire é- cla-|tan _ te,|O Croix de Jé- sus|Christ. _|
[M:6/4]"^Tous" G2 A2 B2 A4 G2 | F6 E6 | F2 F2 F2 A2 F2 A2 | (G6 G4) z2 | F2 F2 F2 A2 F2 A2 | %10
w: Fleu- ve dont l'eau fé-|con- de,|du coeur ou- vert a jail-|li: _|Pour toi la vie sur- a-|
w: Dieu rend par toi la|vie- e|et nous ra- chète à grand|prix: _|l'a- mour de Dieu est fo-|
w: Le fils de Dieu lui-|mê- me|jus- qu'à la mort o- bé-|it; _|ton dé- nue- ment est ex-|
w: Tu ju- ge- ras le|mon- de|au jour que Dieu a choi-|si; _|Croix à ja- mais tri- om-|
 (c4 B2) A4 z2 | B2 c2 B2 (A4 G2) | (F4 F2) z2 z4 |] %13
w: bon _ de,|O Croix de Jé- sus|Christ! _|
w: li _ e,|O Croix de Jé- sus|Christ! _|
w: trê _ me,|O Croix de Jé- sus|Christ! _|
w: phan _ te.|O Croix de Jé- sus|Christ! _|
V:2
 C2 | C4 C2 C2 C2 C2 | G6 C4 z2 | F2 ^E2 F2 (C2 D2) (=E2 |[M:5/4] E2) D2 B,2 C2 z2 :| %5
w: 1.O|Croix dres- sée sur le|mon- de,|Ô croix de Jé _ sus|_ Jé- sus Christ!|
w: 2.O|Croix su- bli- me fo-|li- e,|O croix de Jé _ sus|_ Jé- sus Christ!|
w: 3.O|Croix sa- ges- se su-|prê- me,|O Croix de Jé _ sus|_ Jé- sus Christ!|
w: 4.O|Croix vic- toire é- cla-|tan- te,|O Croix de Jé _ sus|_ Jé- sus Christ!|
[M:6/4] E2 E2 D2 (C2 D2) E2 | D6 E6 | D2 E2 D2 (C6 | C2) D2 B,2 C4 z2 | F2 E2 D2 C2 C2 C2 | %10
w: Fleu- ve dont l'eau _ fé-|con- de,|du coeur ou- vert|_ a jail- li:|Pour toi la vie sur- a-|
w: Dieu rend par toi _ la|vie- e|et nous ra- chète|_ à grand prix:|L'a- mour de Dieu est fo-|
w: Le fils de Dieu _ lui|mê- me|jus- quà la mort|_ o- bé- it;|ton dé- nue- ment est ex-|
w: Tu ju- ge- ras _ le|mon- de|au jour que Dieu|_ a choi- si;|Croix à ja- mais tri- om-|
 G6 A2 (G2 F2) | F4 D2 (E2 F2) (E2 | E2) D2 B,2 C2 z4 |] %13
w: bon- de, O _|Croix de Jé _ sus,|_ Jé- sus Christ!|
w: li- e, O _|Croix de Jé _ sus,|_ Jé- sus Christ!|
w: trê- me, O _|Croix de Jé _ sus,|_ Jé- sus Christ!|
w: phan- te, O _|Croix de Jé _ sus,|_ Jé- sus Christ!|
V:3
 C2 | A,4 A,2 F,2 A,2 F,2 | ^E,6 F,4 =E,2 | (D,2 C,2) D,2 (F,2 B,,2) C,2 |[M:5/4] (F,6 F,2) z2 :| %5
w: 1.O|Croix dres- sée sur le|mon- de, Ô|Croix _ de Jé _ sus,|Christ! _|
w: 2.O|Croix su- bli- me fo-|li- e, O|Croix _ de Jé _ sus|Christ! _|
w: 3.O|Croix sa- ges- se su-|prê- me, O|Croix _ de Jé _ sus|Christ! _|
w: 4.O|Croix vic- toire é- cla-|tan- te, O|Croix _ de Jé _ sus|Christ! _|
[M:6/4] E,2 C,2 G,,2 (A,,2 B,,2) C,2 | (D,4 B,,2) C,6 | D,2 D,2 D,2 F,2 A,2 F,2 | (^E,6 E,4) z2 | %9
w: Fleu- ve dont l'eau _ fé-|con _ de,|du coeur ou- vert a jail-|li: _|
w: Dieu rend par toi _ la|vi _ e,|et nous ra- chète à grand|prix; _|
w: Le fils de Dieu _ lui|mê _ me|jus- qu'à la mort o- bé-|it; _|
w: Tu ju- ge- ras _ le|mon _ de|au jour que Dieu a choi-|si; _|
 F,2 F,2 F,2 F,2 A,2 F,2 | ^E,6 F,2 (=E,2 D,2) | (G,,2 A,,2) B,,2 (C,2 D,2) E,2 | (F,6 F,2) z4 |] %13
w: Pour toi la vie sur- a-|bon- de, O _|Croix _ de Jé _ sus|Christ! _|
w: L'a- mour de Dieu est fo-|li- e, O _|Croix _ de Jé _ sus|Christ! _|
w: ton dé- nue- ment est ex-|trê- me, O _|Croix _ de Jé _ sus|Christ! _|
w: Croix a ja- mais tri- om-|phan- te, O _|Croix _ de Jé _ sus|Christ! _|

